X:1
T:Merry Missionaries
T:Merry Missionaries
T:Edmund Simon Lorenz
T:Harriet D. Castle, 1900
T:Public Domain Courtesy of the Cyber Hymnal™
C:Edmund Simon Lorenz
Z:Public Domain
Z:Courtesy of the Cyber Hymnal™
%%score ( 1 2 ) ( 3 4 )
L:1/8
Q:1/4=93
M:4/4
K:C
V:1 treble 
V:2 treble 
V:3 bass 
V:4 bass 
V:1
 [EG]>[EG] [EG][FA] [EG][CE]C[CE] | [EG]2 [Gc]2 [FB]2 z2 | [Fd]>[Fd] [Fd][Ge] [Fd][DB][DG][EA] | %3
w: 1.~We are mer- ry mis- sion- a- ries,|Don’t you see?|And we give our shin- ing pen- nies,|
w: 2.~We’re so sor- ry heath- en peo- ple|Ne- ver know|All a- bout the gen- tle Je- sus,|
w: 3.~Pen- nies help to tell the sto- ry|Once a- gain,|How the lov- ing, ten- der Sav- ior|
w: 4.~Now we’re co- ming down a- mong you|With our cup,|And we hope that you will kind- ly|
w: 5.~You big peo- ple might give dol- lars,|We should say,|If you can’t give some- thing small- er,|
 [DB]2 [CA]2 [B,G]2 z2 ||"^Refrain" [EG][Ec][Ec][CE] [FA][EG][EG][CE] | %5
w: Give them free.||
w: Kind and true.||
w: Died for them.|Don’t you hear the pen- nies drop- ping?|
w: Fill it up.||
w: A- ny way.||
 [EG][DF][DF][B,D] [FA][EG][EG][CE] | [EG][Ec][Ec][CE] [FA][EG][EG][Cc] | [DB]2 [Fd]2 [Ec]4 |] %8
w: |||
w: |||
w: Drop- ping, drop- ping, drop- ping, drop- ping,|Ne- ver seem to think of stop- ping,|Hear them fall.|
w: |||
w: |||
V:2
 x6 C x | x8 | x8 | x8 || x8 | x8 | x8 | x8 |] %8
V:3
 [C,C]>[C,C] [C,C][C,C] [C,C][C,G,][C,E,][C,G,] | [C,C]2 [E,G,]2 [D,G,]2 z2 | %2
 [G,B,]>[G,B,] [G,B,][G,B,] [G,B,]G,[B,,G,][C,G,] | [D,G,]2 [D,^F,]2 G,2 z2 || %4
 [C,G,][C,G,][C,G,][C,G,] [C,C][C,C][C,C][C,G,] | %5
 [G,,B,][G,,B,][G,,B,][G,,D] [C,C][C,C][C,C][C,G,] | %6
 [C,G,][C,G,][C,G,][C,G,] [C,C][C,C][C,C][E,G,] | G,2 [G,,G,]2 [C,G,]4 |] %8
V:4
 x8 | x8 | x5 G, x2 | x4 G,2 x2 || x8 | x8 | x8 | G,2 x6 |] %8

